modules/framework7-icons/icons/money_euro_fill.svg

<?xml version="1.0" encoding="UTF-8"?>
<svg width="50px" height="50px" viewBox="0 0 50 50" version="1.1" xmlns="http://www.w3.org/2000/svg" xmlns:xlink="http://www.w3.org/1999/xlink">
    <!-- Generator: Sketch 40.1 (33804) - http://www.bohemiancoding.com/sketch -->
    <title>money_euro_fill</title>
    <desc>Created with Sketch.</desc>
    <defs></defs>
    <g id="Page-1" stroke="none" stroke-width="1" fill="none" fill-rule="evenodd">
        <g id="money_euro_fill" fill="#000000">
            <path d="M25,50 C38.8071187,50 50,38.8071187 50,25 C50,11.1928813 38.8071187,0 25,0 C11.1928813,0 0,11.1928813 0,25 C0,38.8071187 11.1928813,50 25,50 Z M32.2324219,12.5644531 C31.5820312,12.3710938 30.1582031,12.2304688 29.0683594,12.2304688 C23.25,12.2304688 18.2753906,15.4296875 16.921875,21.7226562 L12.8789062,21.7226562 L12.8789062,23.5683594 L16.640625,23.5683594 C16.5878906,24.1308594 16.5527344,24.7109375 16.5527344,25.3261719 C16.5527344,25.9414062 16.5878906,26.5214844 16.640625,27.0839844 L12.8789062,27.0839844 L12.8789062,28.9472656 L16.921875,28.9472656 C18.2929688,35.2050781 23.2675781,38.4042969 29.0683594,38.4042969 C30.1582031,38.4042969 31.5820312,38.28125 32.2324219,38.0878906 L32.2324219,35.9082031 C31.5644531,36.1015625 30.1582031,36.1894531 29.0683594,36.1894531 C24.4804688,36.1894531 20.7011719,33.7109375 19.4707031,28.9472656 L29.3144531,28.9472656 L29.3144531,27.0839844 L19.1191406,27.0839844 C19.0664062,26.5214844 19.03125,25.9414062 19.03125,25.3261719 C19.03125,24.7109375 19.0664062,24.1308594 19.1191406,23.5683594 L29.3144531,23.5683594 L29.3144531,21.7226562 L19.4707031,21.7226562 C20.7011719,16.9414062 24.4628906,14.4628906 29.0683594,14.4628906 C30.1582031,14.4628906 31.5644531,14.5859375 32.2324219,14.7441406 L32.2324219,12.5644531 Z" id="Combined-Shape"></path>
        </g>
    </g>
</svg>

<svg width="50" height="50" xmlns="http://www.w3.org/2000/svg"><path d="M25 50c13.807 0 25-11.193 25-25S38.807 0 25 0 0 11.193 0 25s11.193 25 25 25zm7.232-37.436c-.65-.193-2.074-.334-3.164-.334-5.818 0-10.793 3.2-12.146 9.493h-4.043v1.845h3.762a18.673 18.673 0 0 0-.088 1.758c0 .615.035 1.195.088 1.758h-3.762v1.863h4.043c1.371 6.258 6.346 9.457 12.146 9.457 1.09 0 2.514-.123 3.164-.316v-2.18c-.668.194-2.074.281-3.164.281-4.588 0-8.367-2.478-9.597-7.242h9.843v-1.863H19.12a18.673 18.673 0 0 1-.088-1.758c0-.615.035-1.195.088-1.758h10.195v-1.845h-9.843c1.23-4.782 4.992-7.26 9.597-7.26 1.09 0 2.496.123 3.164.281v-2.18z" fill-rule="evenodd"/></svg>
